assets/macimg.svg

<svg width="38" height="36" viewBox="0 0 38 36" fill="none" xmlns="http://www.w3.org/2000/svg">
<path d="M25.8202 1.04131C24.9165 1.23334 23.8208 1.59481 22.2168 2.22738C19.9802 3.10846 19.4493 3.13105 17.4951 2.36293C14.2983 1.12038 12.9654 0.849274 11.1694 1.0526C7.4643 1.49314 4.19977 3.80881 2.44891 7.25407C1.3532 9.43418 0.686742 12.7778 0.844885 15.3645C1.12728 19.8377 2.64094 24.6498 4.9679 28.4678C5.30677 29.0213 5.69084 29.62 5.81509 29.7894C5.95064 29.9589 6.17656 30.2752 6.3347 30.5011C6.84302 31.2466 8.41315 33.0879 8.98924 33.6301C11.0338 35.5052 12.9767 35.7537 15.9136 34.4998C18.0147 33.6075 18.2745 33.551 20.2852 33.5623C22.2507 33.5623 22.4314 33.6075 24.2952 34.3982C26.7916 35.4826 28.6667 35.4826 30.508 34.4208C32.5187 33.2573 35.9865 28.3097 37.3759 24.6272C37.9294 23.17 37.9294 23.2604 37.3759 22.978C34.8908 21.7129 32.8801 19.3068 32.1572 16.7426C31.6828 15.0596 31.7053 12.71 32.2137 11.0834C32.8349 9.06142 34.4164 6.92649 36.1898 5.71782L36.732 5.35635L36.0317 4.54304C34.3712 2.62273 32.3153 1.48185 29.7286 1.03001C28.4295 0.804092 26.882 0.815388 25.8202 1.04131Z" fill="#E6EDFB"/>
</svg>

<svg width="38" height="36" fill="none" xmlns="http://www.w3.org/2000/svg"><path d="M25.82 1.041c-.904.192-2 .554-3.603 1.186-2.237.881-2.768.904-4.722.136-3.197-1.243-4.53-1.514-6.326-1.31-3.705.44-6.97 2.756-8.72 6.201-1.096 2.18-1.762 5.524-1.604 8.11.282 4.474 1.796 9.286 4.123 13.104.339.553.723 1.152.847 1.321.136.17.362.486.52.712.508.746 2.078 2.587 2.654 3.13 2.045 1.874 3.988 2.123 6.925.869 2.1-.892 2.36-.949 4.371-.938 1.966 0 2.146.046 4.01.836 2.497 1.085 4.372 1.085 6.213.023 2.01-1.164 5.479-6.111 6.868-9.794.553-1.457.553-1.367 0-1.649-2.485-1.265-4.496-3.671-5.219-6.235-.474-1.683-.452-4.033.057-5.66.62-2.022 2.202-4.157 3.976-5.365l.542-.362-.7-.813c-1.66-1.92-3.717-3.061-6.303-3.513-1.3-.226-2.847-.215-3.909.011z" fill="#E6EDFB"/></svg>
